X: 7
T: The Trip To Birmingham
R: reel
M: 4/4
L: 1/8
K: Gmaj
|: GE |DGGF GABd | eged edBA | G3 B dGBG | ABAG ED ~D2 |
DGGF GABd | eged efga | bggb ageg | dBAB G2- :|
|: Bc |dggf g2 ga | bgag edBA | G3 B dGBG | ABAG ED ~D2 |
[1 dggf g2 ga | bgag edBA | G3 B dGBG | AGFA G2 :|
[2 dg ~g2 bg ~g2 | bgfa gedB | G3 B dGBG | AGFA G2 |]


Tune 1787	Setting 15232

